X: 1900
T: Around The World For Sport
R: reel
M: 4/4
K: Eminor
G2 BG F2 AF|EBBc BGEF|GABG FGAc|BdAG FDEF|
G2 BG FGAF|EBBA BGEF|GABG FGA2|dBAG FDDg||
[K: D]
fdec dBAF|EBBA BGEg|f2 ef dBAF|GEAG FD D2|
fdde dBAF|EBBA Bgeg|f2 ef dBAF|GEAG FDEF||

